X: 8290
T: Corney Drew's
R: hornpipe
M: 4/4
K: Gmajor
|:~G3E GABd|~edef ged2|~edef (3gfe dB|BAAG AcBA|~G3E GABd|~edef ged2|(3efg dc BGAF|1 G3F GcBA:|2 G3F G2Bd||
g3b a2ga|bgaf ged2|~edef gedB|BAAG A2Bd|g3b a2ga|bgaf ged2|(3efg dc BGAF|G3F G2Bd|g3b a2ga|bgaf ged2|~edef gedB|BAAG AcBA|~G3E GABd|~edef ged2|(3efg dc BGAF|G3F G2BA||

